gtk-3.0/assets/checkbox-checked-dark.svg

<?xml version="1.0" encoding="UTF-8" standalone="no"?>
<svg
   xmlns:dc="http://purl.org/dc/elements/1.1/"
   xmlns:cc="http://creativecommons.org/ns#"
   xmlns:rdf="http://www.w3.org/1999/02/22-rdf-syntax-ns#"
   xmlns:svg="http://www.w3.org/2000/svg"
   xmlns="http://www.w3.org/2000/svg"
   xmlns:sodipodi="http://sodipodi.sourceforge.net/DTD/sodipodi-0.dtd"
   xmlns:inkscape="http://www.inkscape.org/namespaces/inkscape"
   viewBox="0 0 16 16"
   id="svg2"
   version="1.1"
   inkscape:version="0.91 r13725"
   sodipodi:docname="checkbox-checked-dark.svg">
  <metadata
     id="metadata16">
    <rdf:RDF>
      <cc:Work
         rdf:about="">
        <dc:format>image/svg+xml</dc:format>
        <dc:type
           rdf:resource="http://purl.org/dc/dcmitype/StillImage" />
      </cc:Work>
    </rdf:RDF>
  </metadata>
  <defs
     id="defs14" />
  <sodipodi:namedview
     pagecolor="#ffffff"
     bordercolor="#666666"
     borderopacity="1"
     objecttolerance="10"
     gridtolerance="10"
     guidetolerance="10"
     inkscape:pageopacity="0"
     inkscape:pageshadow="2"
     inkscape:window-width="1920"
     inkscape:window-height="1018"
     id="namedview12"
     showgrid="false"
     inkscape:zoom="14.75"
     inkscape:cx="-8.779661"
     inkscape:cy="8"
     inkscape:window-x="0"
     inkscape:window-y="35"
     inkscape:window-maximized="1"
     inkscape:current-layer="svg2" />
  <g
     id="g4147">
    <rect
       width="14.789"
       x="0.68400002"
       y="0.71580291"
       rx="1"
       height="14.758"
       style="fill:#393939"
       id="rect6" />
    <path
       style="fill:#1f1f1f"
       d="M 2,0 C 0.892,0 0,0.892 0,2 l 0,12 c 0,1.108 0.892,2 2,2 l 12,0 c 1.108,0 2,-0.892 2,-2 L 16,2 C 16,0.892 15.108,0 14,0 L 2,0 Z m 0,1 12,0 c 0.554,0 1,0.446 1,1 l 0,12 c 0,0.554 -0.446,1 -1,1 L 2,15 C 1.446,15 1,14.554 1,14 L 1,2 C 1,1.446 1.446,1 2,1 Z"
       id="path8"
       inkscape:connector-curvature="0" />
    <path
       style="color:#000000;line-height:normal;fill:#1a80b6;fill-opacity:1"
       d="m 11.653408,3.9183 c -0.365873,0.01 -0.727323,0.1623 -0.985551,0.4266 L 6.6385666,8.1816 5.2563479,6.6327 C 4.7644532,5.9767 3.6857884,5.9062 3.1156955,6.4927 2.5456026,7.0792 2.6246894,8.1781 3.2726474,8.6735 l 2.3831825,2.5599 c 0.9369248,0.9369 1.3590497,0.8116 2.3049741,-0.1343 0,0 3.250459,-3.9103 5.155609,-5.232 0.421127,-0.3992 0.596878,-0.5102 0.377676,-1.0522 -0.219202,-0.542 -1.265927,-0.916 -1.840681,-0.8966 z"
       id="path10"
       inkscape:connector-curvature="0" />
  </g>
</svg>

<svg xmlns="http://www.w3.org/2000/svg" viewBox="0 0 16 16" xmlns:xlink="http://www.w3.org/1999/xlink">
<g transform="translate(0 -1036.3622)">
<rect width="14.789" x=".684" y="1037.078" rx="1" height="14.758" style="fill:#393939"/>
<path style="fill:#1f1f1f" d="M 2 0 C 0.892 0 3.2526065e-18 0.892 0 2 L 0 14 C 0 15.108 0.892 16 2 16 L 14 16 C 15.108 16 16 15.108 16 14 L 16 2 C 16 0.892 15.108 3.2526065e-18 14 0 L 2 0 z M 2 1 L 14 1 C 14.554 1 15 1.446 15 2 L 15 14 C 15 14.554 14.554 15 14 15 L 2 15 C 1.446 15 1 14.554 1 14 L 1 2 C 1 1.446 1.446 1 2 1 z " transform="translate(0 1036.3622)"/>
<path style="fill:#d64937;line-height:normal;color:#000" d="m 11.653408,1040.2805 c -0.365873,0.01 -0.727323,0.1623 -0.985551,0.4266 l -4.0292904,3.8367 -1.3822187,-1.5489 c -0.4918947,-0.656 -1.5705595,-0.7265 -2.1406524,-0.14 -0.5700929,0.5865 -0.4910061,1.6854 0.1569519,2.1808 l 2.3831825,2.5599 c 0.9369248,0.9369 1.3590497,0.8116 2.3049741,-0.1343 0,0 3.250459,-3.9103 5.155609,-5.232 0.421127,-0.3992 0.596878,-0.5102 0.377676,-1.0522 -0.219202,-0.542 -1.265927,-0.916 -1.840681,-0.8966 z"/>
</g>
</svg>
